img/svg/basket.svg

<svg width="22" height="20" viewBox="0 0 22 20" fill="none" xmlns="http://www.w3.org/2000/svg">
<path d="M1 1H4.63636L7.07273 12.4771C7.15586 12.8718 7.38355 13.2263 7.71595 13.4785C8.04835 13.7308 8.46427 13.8649 8.89091 13.8571H17.7273C18.1539 13.8649 18.5698 13.7308 18.9022 13.4785C19.2346 13.2263 19.4623 12.8718 19.5455 12.4771L21 5.28571H5.54545M9.18182 18.1429C9.18182 18.6162 8.7748 19 8.27273 19C7.77065 19 7.36364 18.6162 7.36364 18.1429C7.36364 17.6695 7.77065 17.2857 8.27273 17.2857C8.7748 17.2857 9.18182 17.6695 9.18182 18.1429ZM19.1818 18.1429C19.1818 18.6162 18.7748 19 18.2727 19C17.7707 19 17.3636 18.6162 17.3636 18.1429C17.3636 17.6695 17.7707 17.2857 18.2727 17.2857C18.7748 17.2857 19.1818 17.6695 19.1818 18.1429Z" stroke="#151C22" stroke-width="2" stroke-linecap="round" stroke-linejoin="round"/>
</svg>

<svg width="22" height="20" fill="none" xmlns="http://www.w3.org/2000/svg"><path d="M1 1h3.636l2.437 11.477c.083.395.31.75.643 1.002a1.89 1.89 0 001.175.378h8.836c.427.008.843-.126 1.175-.378a1.7 1.7 0 00.643-1.002L21 5.286H5.545m3.637 12.857c0 .473-.407.857-.91.857-.501 0-.908-.384-.908-.857 0-.474.407-.857.909-.857s.909.383.909.857zm10 0c0 .473-.407.857-.91.857-.501 0-.908-.384-.908-.857 0-.474.407-.857.909-.857s.909.383.909.857z" stroke="#151C22" stroke-width="2" stroke-linecap="round" stroke-linejoin="round"/></svg>
